X: 2134
T: Üç Gün Olmuş
C: (Anonim)
O: Turkey
F: http://compmusic.upf.edu/node/140
N: zavil--turku--sofyan--uc_gun--
N: makam= zavil
N: form= turku
N: usul= sofyan = 4/4
M: 4/4
L: 1/16
K: C ^9/8f   
Q: 1/4=84
%%MIDI tuningsystem comma53
_B2{c}BA G2F2 G6A2  | _B2BA G2F2 G4 z4  | \
w:  ARANAĞME  |   | 
_B2{c}BA G2F2 G6A2  | 
w:   | 
_B2BA G2F2 G4 z4  | _B2{c}BA G2F2 G6A2  | \
w:   |  ARANAĞME  | 
_B2BA G2F2 G4 z4  | 
w:   | 
_B2{c}BA G2F2 G6A2  | _B2BA G2F2 G2d2 e2f2  | \
w:   |   | 
g4 g2f2 e2f2 gafa  | 
w:  A  | 
g16  | e3f g2a2 f2g6  | e2f2 g2a2 f2g6  | \
w:  man   |  üç  *  gün  *  ol muş   |  bu  *  yay *  la dan   | 
e2f2 g2a2 f2g6  | f2f6 f4 f4  | 
w:  ge *  çe *  li    |  Pı nar lar dan   | 
e4 f2g2 a2g2 f2e2  | d8 z8  | a4 g2f2 f2e2 gfe2  | \
w:  so ğuk  *  su  |  lar   |  i çe  | 
e14d2  | d2_3/4e2 d2c2 d2e2 d2c2  | 
w:  li    |  A man  *  *  a man   | 
d2_3/4e^3/4f e2d2 d8  | d2e2 e2e2 e4 e4  | \
w:  a man  *  *  *  hey    |  Al *  nı  da  top  kâ  | 
d2e2 e2e2 e2e6  | d2e4a2 g2=f2 e2d2  | 
w:  kül *  lü  de  yü zü   |  pe çe *  li    | 
d4 _3/4edc2 d2d6  | d4 d4 d2_3/4ed c_2/4Bc2  | \
w:  Çek miş  *  *  gi der   |  yay la sı na   | 
_3/4e3d c2_2/4B2 c8  | c2g6 _e3d c2B2  | 
w:  bin  *  gül *  lü   |  hı ra  | 
c16  | B4 B4 d8  | A4 A4 A2c2 _B2A2  | _B3A G2F2 G6A2  | \
w:  yı    |  Eğ len  gel   |  sal lan  gel   |  gel  *  *  a man  a  | 
_B3A G2F2 G8  | 
w:  man  *  *  a man    | 
|


